X: 12
T: The Keel Row
R: strathspey
M: 4/4
L: 1/8
K: Amaj
d|c2 A>c d2 B>d|c2 A>c B>GE>d|c2 A>c d2 B>d|c>AB<G A2 A:|
|:d|c<ee<a f2 e>d|c2 A>c B>GE>d|c<ee<a f2 e>d|c>AB<G A2 A:|


Tune 3637	Setting 21296

